X:19
T:Somerset Wassail
C:traditional English
M:C
L:1/4
K:Eb
%
V:1 clef=treble
V:2 clef=treble
V:3 clef=bass
V:4 clef=bass
%
%%staves 1
%
E | (E c) B A | G2 (F E) | (E F) G A |
w: 1.~Was- sail_ and was- sail all_ o_ ver the
%
B3 E | (E c) B A | G2 F E | (E F) G A |
w:  town. The cup_ it is white and the ale_ it is
%
B3 G | (c A) _d c | B2 G G | (A G) F G |
w: brown; The cup_ it is made of the good_ ash- en
%
A2 (G A) | (B e) c A | B2 A G | (F E) (G F) |
w: tree, And_ so_ is the malt of the best_ bar_
%
%%staves [(1 2) | (3 4)]
%
[V:1] E2 | "Chorus" B, B, | E2  F2   | B,2 B, B, | E2  (F G) | A2 G A |
[V:2] E2 |          B, B, | B,2 C2   | B,2 B, B, | B,2  C- C | C2 E D |
w: ley. For it's your was- sail and it's our was_ sail, And it's
[V:3] z2 |          b  b  | g2 (a f) | b2  d  d  | e2  (a g) | f2 b b |
[V:4] z2 |          B  B  | e2  A2   | B2  A  A  | G2  (A c) | f2 e e |
%
[V:1] (B e) c A | B2    A G | F E  (G F) | E2 z |]
[V:2] (E G) E E | (F G) E E | C B, (E D) | E2 z |]
w: joy_ be to you,_ and a jol- ly was_ sail.
[V:3] b2    a a | (f b) e b | f b   b2   | g2 z |]
[V:4] (g e) A c | (d e) c B | A G   B2   | e2 z |]
%
%%newpage
%
W: 1. Wassail and wassail all over the town.
W:    The cup it is white and the ale it is brown;
W:    The cup it is made of the good ashen tree,
W:    And so is the malt of the best barley.
W:    For it's your wassail and it's our wassail,
W:    And it's joy be to you, and a jolly wassail.
W:
W: 2. O master and missus, are you all within?
W:    Pray open the door and let us come in.
W:    O master and missus a-sitting by the fire,
W:    Pray think on us poor travelers, a traveling in the mire.
W:    For it's your wassail and it's our wassail,
W:    And it's joy be to you, and a jolly wassail.
W:
W: 3. O where is the maid with the silver-headed pin,
W:    To open the door and let us come in?
W:    O master and missus, it is our desire:
W:    A good loaf and cheese, and a toast by the fire.
W:    For it's your wassail and it's our wassail,
W:    And it's joy be to you, and a jolly wassail.
W:
W: 4. There was an old man, and he had an old cow,
W:    And how for to keep her he didn't know how;
W:    He built up a barn for to keep his cow warm.
W:    And a drop or two of cider will do us no harm.
W:    No harm, boys, harm; no harm, boys, harm;
W:    And a drop or two of cider will do us no harm.
W:
W: 5. The girt dog of Langport he burnt his long tail,
W:    And this is the night we go singing wassail.
W:    O master and missus now we must be gone;
W:    God bless all in this house until we do come again.
W:    For it's your wassail and it's our wassail,
W:    And it's joy be to you, and a jolly wassail.

